!!!!SEGMENT: pl-cz--iii-572--004_rygall-ignacy--salve-regina-o-clemens-o-pia.krn
!!!cenid: 18xx:1030
!!!COM: Rygall, Ignacy
!!!COM-rismid: pe30110281
!!!CDT: <1750->1799
!!!CNT:
!!!OPR: Salve Regina
!!!OTL: O clemens o pia
!!!OMV: 004
!!!PDT:
!!!AGN: Sacred
!!!SMS-siglum: PL-CZ
!!!SMS-shelfmark: III-572
!!!SMS-shelfwork: 001-004 M
!!!SMS-variant:
!!!SMS-altvar:
!!!NIFC-rismid: 300001134
!!!URL-scan: http://repozytorium.nifc.pl/skany/pl-cz-nut--iii-572
!!!ONB-nifc: UWAGA: części Salve Regina: Salve Regina, Ad te suspiramus, Eia ergo, O clemens o pia
!!!AIN: 1 cbass 2 cor 1 soprn 1 viola 2 violn
!!!key: F
**kern	**dynam	**kern	**kern	**dynam	**kern	**dynam	**kern	**text	**kern	**kern	**dynam
*group3	*	*group3	*group3	*	*group3	*	*group2	*	*group1	*group1	*
*part7	*part7	*part6	*part5	*part5	*part4	*part4	*part3	*part3	*part2	*part1	*part1
*staff7	*	*staff6	*staff5	*	*staff4	*	*staff3	*staff3	*staff2	*staff1	*
*I"Baſso	*	*I"Viola di Praza	*I"Violino Secondo	*	*I"Violino 1mo	*	*I"Soprano Solo	*	*I"Corno 2do in F	*I"Corno 1mo in F	*
*I'[Cb]	*	*I'[Vla]	*I'[Vl 2]	*	*I'[Vl 1]	*	*I'[S]	*	*I'[Cor 2 in F]	*I'[Cor 1 in F]	*
*Icbass	*	*Iviola	*Ivioln	*	*Ivioln	*	*Isoprn	*	*Icor	*Icor	*
*ICstr	*	*ICstr	*ICstr	*	*ICstr	*	*ICvox	*	*ICbras	*ICbras	*
*IGacmp	*	*IGacmp	*IGacmp	*	*IGacmp	*	*IGsolo	*	*IGacmp	*IGacmp	*
*clefF4	*	*clefC3	*clefG2	*	*clefG2	*	*clefC1	*	*clefG2	*clefG2	*
*	*	*	*	*	*	*	*	*	*ITrd4c7	*ITrd4c7	*
*k[b-]	*	*k[b-]	*k[b-]	*	*k[b-]	*	*k[b-]	*	*k[b-]	*k[b-]	*
*F:	*	*F:	*F:	*	*F:	*	*F:	*	*F:	*F:	*
*M3/4	*	*M3/4	*M3/4	*	*M3/4	*	*M3/4	*	*M3/4	*M3/4	*
=1	=1	=1	=1	=1	=1	=1	=1	=1	=1	=1	=1
*2\right	*	*2\right	*	*	*	*	*	*	*	*	*
!	!	!LO:TX:a:B:t=allegretto	!	!LO:DY:b:rj:t=p&colon;	!LO:TX:t=P:problem=all\right&colon; global	!	!	!	!	!	!
!	!	!LO:TX:a:t=O Clemens	!LO:TX:a:t=O Clemens	!	!LO:TX:a:t=O Clemens	!	!LO:TX:a:B:t=allegretto	!	!LO:TX:b:t=O Clemens	!LO:TX:b:t=O Clemens	!
!LO:TX:a:t=Clemens	!	!LO:TX:t=P:problem=all\middle&colon; global	!LO:TX:a:B:t=allegretto	!	!LO:TX:a:B:t=allegro	!	!LO:TX:a:t=O Clemens	!	!LO:TX:a:B:t=allegretto	!LO:TX:a:B:t=allegretto	!
2F\	.	2c\	4.a\	p	4.ff\	.	4.ff\	O	4r	4r	.
.	.	.	.	.	.	.	.	.	4r	4r	.
.	.	.	16cc\LL	.	16ee\LL	.	16ee\LL	.	.	.	.
.	.	.	16b-\JJ	.	16dd\JJ	.	16dd\JJ	.	.	.	.
!	!	!LO:TX:t=P:4\right:problem	!	!	!	!	!	!	!	!	!
4F\	.	4c\	4a\	.	4cc\	.	4cc\	.	4a\	4cc\	.
=2	=2	=2	=2	=2	=2	=2	=2	=2	=2	=2	=2
.	.	.	8qqa/	.	8qqcc/	.	8qqcc/	.	.	.	.
4C\	.	4e\	4g\	.	4b-\	.	4b-\	cle-	4g\	4b-\	.
4F\	.	4f\	4f\	.	4a\	.	4a\	-mens	4f\	4a\	.
4r	.	4r	4r	.	4r	.	4r	.	4r	4r	.
=3	=3	=3	=3	=3	=3	=3	=3	=3	=3	=3	=3
8B-\L	.	8B-/L	8f/	.	(>8cc#X\L	.	(>8cc#X\L	O	4r	4r	.
8F\	.	8F/	4f/	.	8dd\)	.	8dd\J)	.	.	.	.
8B-\	.	8B-/	.	.	(>8cc#\	.	(>8cc#\L	.	4f\	4b-\	.
8F\	.	8F/	4f/	.	8dd\)	.	8dd\J)	.	.	.	.
8B-\	.	8B-/	.	.	(>8ff\	.	(>8ff\L	.	4f\	4b-\	.
8F\J	.	8F/J	8f/	.	8dd\J)	.	8dd\J)	.	.	.	.
=4	=4	=4	=4	=4	=4	=4	=4	=4	=4	=4	=4
.	.	.	.	.	.	.	8qqee/	.	.	.	.
4B-\	.	4B-/	4f/	.	4dd\	.	4dd\	pi-	4f\	4b-\	.
4F\	.	4F/	4f/	.	4cc\	.	4cc\	-a	4f\	4a\	.
4r	.	4r	4r	.	4r	.	8r	.	4r	4r	.
.	.	.	.	.	.	.	8cc\	O	.	.	.
!	!	!	!	!	!LO:LB:g=original	!	!	!	!	!	!
=5	=5	=5	=5	=5	=5	=5	=5	=5	=5	=5	=5
.	.	.	.	.	.	.	8qqcc/	.	.	.	.
4r	.	4r	4r	.	4r	.	8.b-\L	dul-	4r	4r	.
.	.	.	.	.	.	.	32a\LL	.	.	.	.
.	.	.	.	.	.	.	32b-\JJJ	.	.	.	.
4E\	.	4c\	4b-\	.	4b-\	.	4gg\	-cis	4g\	4b-\	.
4E\	.	4c\	4b-\	.	4gg\	.	8r	.	4g\	4b-\	.
.	.	.	.	.	.	.	8b-\	o	.	.	.
=6	=6	=6	=6	=6	=6	=6	=6	=6	=6	=6	=6
4r	.	4r	4r	.	4r	.	8.a\L	dul-	4r	4r	.
.	.	.	.	.	.	.	32g\LL	.	.	.	.
.	.	.	.	.	.	.	32a\JJJ	.	.	.	.
4F\	.	4c\	4a\	.	4a\	.	4ff\	-cis	4f\	4a\	.
4F\	.	4c\	4a\	.	4ff\	.	8r	.	4f\	4a\	.
.	.	.	.	.	.	.	8cc\	vir-	.	.	.
!	!	!LO:LB:g=original	!	!	!	!	!LO:LB:g=original	!	!	!	!
=7	=7	=7	=7	=7	=7	=7	=7	=7	=7	=7	=7
!	!	!	!	!	!	!	!LO:TX:a:t=|:problem	!	!	!	!
4BB-\	.	4B-\	8d/L	.	8cc\L	.	8cc\L	-go	4g\	4b-\	.
.	.	.	8B-/J	.	16b-\L	.	(>16b-\L	Ma-	.	.	.
.	.	.	.	.	16g\JJ	.	16g\JJ)	.	.	.	.
4C\	.	4c\	4A/	.	4f/	.	(<4f/	-ri-	4f\	4a\	.
4C\	.	4c\	4B-/	.	4gT>/	.	4g/)	.	4c\	4g\	.
!	!	!	!	!	!	!	!	!	!LO:LB:g=original	!	!
=8	=8	=8	=8	=8	=8	=8	=8	=8	=8	=8	=8
!	!	!LO:TX:t=P:problem=4\right&colon; global	!	!	!	!	!	!	!	!	!
4F\	.	4f\	4A/	.	4f/	.	4f/	-a	4A/	4f\	.
4C\	.	4c\	4r	.	4r	.	4r	.	8A/L	8f\L	.
.	.	.	.	.	.	.	.	.	8A/J	8f\J	.
4r	.	4F\	4r	.	4r	.	8r	.	4A/	4f\	.
.	.	.	.	.	.	.	8cc\	o	.	.	.
!	!	!	!LO:LB:g=original	!	!	!	!	!	!	!LO:LB:g=original	!
=9	=9	=9	=9	=9	=9	=9	=9	=9	=9	=9	=9
!	!	!LO:TX:t=P:problem=4\middle&colon; global	!	!	!	!	!	!	!	!	!
4r	.	4r	4r	.	4r	.	8.b-\L	dul-	4r	4r	.
.	.	.	.	.	.	.	32a\LL	.	.	.	.
.	.	.	.	.	.	.	32b-\JJJ	.	.	.	.
4E\	.	4c\	4b-\	.	4gg\	.	4gg\	-cis	4g\	4b-\	.
4E\	.	4c\	4b-\	.	4gg\	.	8r	.	4g\	4b-\	.
.	.	.	.	.	.	.	8b-\	o	.	.	.
!LO:LB:g=original	!	!	!	!	!	!	!	!	!	!	!
=10	=10	=10	=10	=10	=10	=10	=10	=10	=10	=10	=10
4ryy	.	4r	4r	.	4r	.	8.a\L	dul-	4r	4r	.
.	.	.	.	.	.	.	32g\LL	.	.	.	.
.	.	.	.	.	.	.	32a\JJJ	.	.	.	.
4F\	.	4c\	4a\	.	4ff\	.	4ff\	-cis	4f\	4a\	.
4F\	.	4c\	4a\	.	4ff\	.	8r	.	4f\	4a\	.
.	.	.	.	.	.	.	8cc\	vir-	.	.	.
=11	=11	=11	=11	=11	=11	=11	=11	=11	=11	=11	=11
4BB-/	.	4B-\	8d/L	.	8b-\L	.	8b-\L	-go	4g\	4b-\	.
.	.	.	8B-/J	.	8g\J	.	8g\J	.	.	.	.
4C/	.	4c\	4A/	.	4f\	.	4f\	Ma-	4f\	4a\	.
4CC/	.	4c\	4B-/	.	4g\	.	4g\	-ri-	4c\	4g\	.
=12	=12	=12	=12	=12	=12	=12	=12	=12	=12	=12	=12
4FF/	.	4f\	2A/	.	2f/	.	2f/	-a	4A/	4f\	.
4F\	.	4F/	.	.	.	.	.	.	8A/L	8f\L	.
.	.	.	.	.	.	.	.	.	8A/J	8f\J	.
4FF/	.	4f\	4r	.	4r	.	4r	.	4A/	4f\	.
=13	=13	=13	=13	=13	=13	=13	=13	=13	=13	=13	=13
*	*	*	*	*	*	*	*	*	*2\right	*2\right	*
8B-\L	.	2.c\	2.e/	.	4.ee\	.	4.ee\	O	2g\	2b-\	.
8C\	.	.	.	.	.	.	.	.	.	.	.
8B-\	.	.	.	.	.	.	.	.	.	.	.
8C\	.	.	.	.	8gg\	.	8gg\	.	.	.	.
8B-\	.	.	.	.	16ff\LL	.	(>16ff\LL	.	4r	4r	.
.	.	.	.	.	16ee\	.	16ee\)	.	.	.	.
8C\J	.	.	.	.	16dd\	.	(>16dd\	.	.	.	.
.	.	.	.	.	16cc\JJ	.	16cc\JJ)	.	.	.	.
!	!	!	!	!	!LO:LB:g=original	!	!LO:LB:g=original	!	!	!	!
=14	=14	=14	=14	=14	=14	=14	=14	=14	=14	=14	=14
!LO:TX:a:t=R	!	!	!	!	!	!	!	!	!	!	!
8A\L	.	2.c\	2.f/	.	8ff\L	.	8ff\L	Cle-	2f\	2a\	.
8C\	.	.	.	.	8cc\J	.	8cc\J	.	.	.	.
8A\	.	.	.	.	4cc\	.	4cc\	-mens	.	.	.
8C\	.	.	.	.	.	.	.	.	.	.	.
8A\	.	.	.	.	4ryy	.	4r	.	4r	4r	.
8C\J	.	.	.	.	.	.	.	.	.	.	.
=15	=15	=15	=15	=15	=15	=15	=15	=15	=15	=15	=15
8G\L	.	2.c\	2.g/	.	4.b-\	.	4.b-\	O	2c\	2g\	.
8C\	.	.	.	.	.	.	.	.	.	.	.
8G\	.	.	.	.	.	.	.	.	.	.	.
8C\	.	.	.	.	16a\LL	.	(>16a\LL	.	.	.	.
.	.	.	.	.	16b-\JJ	.	16b-\JJ)	.	.	.	.
8G\	.	.	.	.	8cc\L	.	8cc\L	.	4r	4r	.
8C\J	.	.	.	.	8b-\J	.	8b-\J	.	.	.	.
=16	=16	=16	=16	=16	=16	=16	=16	=16	=16	=16	=16
8F\L	.	2.c\	2.a/	.	(>16b-\LL	.	(>16b-\LL	pi-	2f\	2a\	.
.	.	.	.	.	16a\)	.	16a\)	.	.	.	.
8C\	.	.	.	.	(>16dd\	.	(>16dd\	.	.	.	.
.	.	.	.	.	16cc\JJ)	.	16cc\JJ)	.	.	.	.
8F\	.	.	.	.	4cc\	.	4cc\	-a	.	.	.
8C\	.	.	.	.	.	.	.	.	.	.	.
8F\	.	.	.	.	4r	.	4r	.	4r	4r	.
8C\J	.	.	.	.	.	.	.	.	.	.	.
=17	=17	=17	=17	=17	=17	=17	=17	=17	=17	=17	=17
!LO:TX:t=P:problem=t. 17-20 zapisane jako repetycja	!	!	!	!	!	!	!	!	!	!	!
8B-\Lyy	.	2.c\	2.e/	.	4.ee\	.	4.ee\	O	0.r	0.r	.
8C\yy	.	.	.	.	.	.	.	.	.	.	.
8B-\yy	.	.	.	.	.	.	.	.	.	.	.
8C\yy	.	.	.	.	8gg\	.	8gg\	.	.	.	.
8B-\yy	.	.	.	.	(>16ff\LL	.	16ff\LL	dul-	.	.	.
.	.	.	.	.	16ee\)	.	16ee\	.	.	.	.
8C\Jyy	.	.	.	.	(>16dd\	.	16dd\	-cis	.	.	.
.	.	.	.	.	16cc\JJ)	.	16cc\JJ	.	.	.	.
=18	=18	=18	=18	=18	=18	=18	=18	=18	=18-	=18-	=18
!LO:TX:a:t=R	!	!	!	!	!	!	!	!	!	!	!
8A\Lyy	.	2.c\	2.f/	.	8ff\L	.	8ff\L	Vir-	.	.	.
8C\yy	.	.	.	.	8cc\J	.	8cc\J	.	.	.	.
8A\yy	.	.	.	.	4cc\	.	4cc\	-go	.	.	.
8C\yy	.	.	.	.	.	.	.	.	.	.	.
8A\yy	.	.	.	.	4r	.	4r	.	.	.	.
8C\Jyy	.	.	.	.	.	.	.	.	.	.	.
!	!	!LO:LB:g=original	!	!	!	!	!	!	!	!	!
=19	=19	=19	=19	=19	=19	=19	=19	=19	=19-	=19-	=19
8G\Lyy	.	2.c\	2.g/	.	4.b-\	.	4.b-\	vir-	.	.	.
8C\yy	.	.	.	.	.	.	.	.	.	.	.
8G\yy	.	.	.	.	.	.	.	.	.	.	.
8C\yy	.	.	.	.	16a\LL	.	(>16a\LL	-go	.	.	.
.	.	.	.	.	16b-\JJ	.	16b-\JJ)	.	.	.	.
8G\yy	.	.	.	.	8cc\L	.	8cc\L	Ma-	.	.	.
8C\Jyy	.	.	.	.	8b-\J	.	8b-\J	.	.	.	.
!	!	!	!	!	!LO:LB:g=original	!	!LO:LB:g=original	!	!	!	!
=20	=20	=20	=20	=20	=20	=20	=20	=20	=20-	=20-	=20
8F\Lyy	.	2.c\	2.a/	.	(>16b-\LL	.	(>8a\L	-ri-	.	.	.
.	.	.	.	.	16a\)	.	.	.	.	.	.
8C\yy	.	.	.	.	(>16dd\	.	16dd\L	.	.	.	.
.	.	.	.	.	16cc\JJ)	.	16cc\JJ)	.	.	.	.
8F\yy	.	.	.	.	4cc\	.	4cc\	-a	.	.	.
8C\yy	.	.	.	.	.	.	.	.	.	.	.
8F\yy	.	.	.	.	4r	.	4r	.	.	.	.
8C\Jyy	.	.	.	.	.	.	.	.	.	.	.
=21	=21	=21	=21	=21	=21	=21	=21	=21	=21	=21	=21
*	*	*	*	*	*2\right	*	*	*	*	*	*
*tremolo	*	*tremolo	*tremolo	*	*tremolo	*	*	*	*	*	*
8B-\L	.	8B-/L	8f/L	.	8dd\L	.	(>8cc#X\L	O	4r	4r	.
8B-\	.	8B-/	8f/	.	8dd\	.	8dd\)	.	.	.	.
8B-\	.	8B-/	8f/	.	8dd\	.	(>8ff\	dul-	4b-\	4dd\	.
8B-\J	.	8B-/J	8f/J	.	8dd\J	.	8dd\)	.	.	.	.
*Xtremolo	*	*Xtremolo	*Xtremolo	*	*	*	*	*	*	*	*
8A\L	.	8A/L	8f/L	.	8cc\L	.	(>8ccn\	-cis	4a\	4cc\	.
8A\J	.	8A/J	8f/J	.	8cc\J	.	8a\J)	.	.	.	.
!	!	!	!LO:LB:g=original	!	!	!	!	!	!LO:LB:g=original	!LO:LB:g=original	!
=22	=22	=22	=22	=22	=22	=22	=22	=22	=22	=22	=22
*tremolo	*	*	*	*	*	*	*	*	*	*	*
!	!	!	!LO:TX:b:t=|:problem	!	!	!	!	!	!	!	!
8G\L	.	8G/L	8d/L	.	8b-\L	.	(>8cc\L	vir-	4r	4r	.
!	!	!	!LO:TX:b:t=|:problem	!	!	!	!	!	!	!	!
8G\	.	8G/	8d/	.	8b-\	.	8b-\)	.	.	.	.
!	!	!	!LO:TX:b:t=|:problem	!	!	!	!	!	!	!	!
8G\	.	8c/	8e/	.	8b-\	.	(>8g\	.	4g\	4b-\	.
!	!	!	!LO:TX:b:t=|:problem	!	!	!	!	!	!	!	!
8G\J	.	8c/	8e/	.	8b-\J	.	8b-\)	.	.	.	.
*Xtremolo	*	*	*	*	*	*	*	*	*	*	*
!	!	!	!LO:TX:b:t=|:problem	!	!	!	!	!	!	!	!
8F\L	.	8f/	8f/	.	8a\L	.	(>8a\	-go	4f\	4a\	.
!	!	!	!LO:TX:b:t=|:problem	!	!	!	!	!	!	!	!
8F\J	.	8f/J	8f/J	.	8a\J	.	8ff\J)	.	.	.	.
*	*	*	*	*	*Xtremolo	*	*	*	*	*	*
=23	=23	=23	=23	=23	=23	=23	=23	=23	=23	=23	=23
!!mixed beam:problem
!LO:TX:t=P:problem=mixed beam	!	!	!	!	!	!	!	!	!	!	!
8B-\L	.	8B-/L	8d/L	.	8g/L	.	8b-\L	Ma-	4g\	4b-\	.
8B-\	.	8B-/	8d/	.	8g/	.	8g\J	.	.	.	.
8c\	.	8c/	8A/	.	8f/	.	4f/	-ri-	4f\	4a\	.
8c\	.	8c/	8A/	.	8f/	.	.	.	.	.	.
8C/	.	8C/	8G/	.	8e/	.	4g/	.	4c\	4g\	.
8C/J	.	8C/J	8G/J	.	8e/J	.	.	.	.	.	.
=24	=24	=24	=24	=24	=24	=24	=24	=24	=24	=24	=24
4F\	.	4f\	4A/	.	4f/	.	4f/	-a	4A/	4f\	.
4FF/	.	4c\	4r	.	2r	.	4r	.	8A/L	8f\L	.
.	.	.	.	.	.	.	.	.	8A/J	8f\J	.
4F\	.	4F/	4r	.	.	.	4r	.	4A/	4f\	.
!LO:LB:g=original	!	!	!	!	!	!	!	!	!	!	!
=25	=25	=25	=25	=25	=25	=25	=25	=25	=25	=25	=25
*tremolo	*	*tremolo	*tremolo	*	*tremolo	*	*	*	*	*	*
8B-\L	.	8B-/L	8f/L	.	8dd\L	.	(>8cc#X\L	O	4r	4r	.
8B-\	.	8B-/	8f/	.	8dd\	.	8dd\)	.	.	.	.
8B-\	.	8B-/	8f/	.	8dd\	.	(>8ff\	dul-	4b-\	4dd\	.
8B-\J	.	8B-/J	8f/J	.	8dd\J	.	8dd\)	.	.	.	.
*Xtremolo	*	*Xtremolo	*Xtremolo	*	*	*	*	*	*	*	*
8A\L	.	8A/L	8e/L	.	8cc\L	.	(>8ccn\	-cis	4a\	4cc\	.
8A\J	.	8A/J	8e/J	.	8cc\J	.	8a\J)	.	.	.	.
!	!	!	!	!	!	!	!LO:LB:g=original	!	!	!	!
=26	=26	=26	=26	=26	=26	=26	=26	=26	=26	=26	=26
8G\L	.	8G/L	8d/L	.	8b-\L	.	8cc\L	vir-	4r	4r	.
8G\	.	8G/	8d/	.	8b-\	.	8b-\	.	.	.	.
8C\	.	8c/	8e/	.	8b-\	.	8g\	.	4g\	4b-\	.
8C\	.	8c/	8e/	.	8b-\J	.	8b-\J	.	.	.	.
8F\	.	8f/	8f/	.	8a\L	.	4a\	-go	4f\	4a\	.
8F\J	.	8f/J	8f/J	.	8a\J	.	.	.	.	.	.
*	*	*	*	*	*Xtremolo	*	*	*	*	*	*
=27	=27	=27	=27	=27	=27	=27	=27	=27	=27	=27	=27
!!mixed beam:problem
!LO:TX:t=P:problem=mixed beam	!	!LO:TX:t=P:problem=mixed beam	!	!	!	!	!	!	!	!	!
8BB-\L	.	8B-\L	8d/L	.	8g/L	.	8.b-\L	Ma-	4g\	4b-\	.
8BB-\	.	8B-\	8d/	.	8g/	.	.	.	.	.	.
.	.	.	.	.	.	.	32a\LL	.	.	.	.
.	.	.	.	.	.	.	32g\JJJ	.	.	.	.
8C\	.	8c\	8A/	.	8f/	.	4f\	.	4f\	4a\	.
8C\	.	8c\	8A/	.	8f/	.	.	.	.	.	.
8CC/	.	8C/	8G/	.	8e/	.	4g\	-ri-	4c\	4g\	.
8CC/J	.	8C/J	8G/J	.	8e/J	.	.	.	.	.	.
!	!	!LO:LB:g=original	!	!	!LO:LB:g=original	!	!	!	!	!	!
=28	=28	=28	=28	=28	=28	=28	=28	=28	=28	=28	=28
!	!	!	!	!	!	!	!LO:TX:a:t=|:problem	!	!	!	!
2D\	.	2D/	2A/	.	2f/	.	8f\L	-a	4A/	4f\	.
.	.	.	.	.	.	.	(>16g\L	.	.	.	.
.	.	.	.	.	.	.	16a\JJ)	.	.	.	.
.	.	.	.	.	.	.	(>16b-\LL	.	4r	4r	.
.	.	.	.	.	.	.	16cc\	.	.	.	.
.	.	.	.	.	.	.	16dd\	.	.	.	.
.	.	.	.	.	.	.	16ee\JJ)	.	.	.	.
!	!	!	!	!	!LO:N:vis=2	!	!	!	!	!	!
4r	.	4r	4r	.	4r	.	4ff\	.	4r	4r	.
=29	=29	=29	=29	=29	=29	=29	=29	=29	=29	=29	=29
!!mixed beam:problem
!LO:TX:t=P:problem=mixed beam	!	!LO:TX:t=P:problem=mixed beam	!	!	!	!	!	!	!	!	!
8B-\L	.	8B-\L	8b-\L	.	8dd\L	.	8dd\L	Ma-	4g\	4b-\	.
8B-\	.	8B-\	16a\L	.	8b-\	.	16cc\L	.	.	.	.
.	.	.	16g\JJ	.	.	.	16b-\JJ	.	.	.	.
8c\	.	8c\	8f/L	.	8a\	.	4a\	.	4f\	4a\	.
8c\	.	8c\	8f/	.	8a\	.	.	.	.	.	.
8C/	.	8C/	8e/	.	8g\	.	4g\	-ri-	4c\	4g\	.
8C/J	.	8C/J	8e/J	.	8g\J	.	.	.	.	.	.
=30	=30	=30	=30	=30	=30	=30	=30	=30	=30	=30	=30
!	!	!LO:TX:t=P:4\left:problem	!	!	!	!	!	!	!	!	!
4F\	.	4f\	2A/	.	2f/	.	2f/	-a	4A/	4f\	.
!	!	!LO:TX:t=P:4\left:problem	!	!	!	!	!	!	!	!	!
4C\	.	4c\	.	.	.	.	.	.	8A/L	8f\L	.
.	.	.	.	.	.	.	.	.	8A/J	8f\J	.
4FF/	.	4F/	4r	.	4r	.	4r	.	4A/	4f\	.
!	!	!	!LO:LB:g=original	!	!	!	!	!	!	!	!
=31	=31	=31	=31	=31	=31	=31	=31	=31	=31	=31	=31
!	!LO:DY:b:t=f&colon;:rj	!	!	!	!	!LO:DY:b:rj	!LO:TX:b:t=19.	!	!	!	!
8B-\L	f	2.c\	2.g/	.	4.ee\	f	2.r	.	2g\	2b-\	.
8C\	.	.	.	.	.	.	.	.	.	.	.
8B-\	.	.	.	.	.	.	.	.	.	.	.
8C\	.	.	.	.	8gg\	.	.	.	.	.	.
!LO:TX:a:t=R	!	!	!	!	!	!	!	!	!	!	!
8B-\	.	.	.	.	(>16ff\LL	.	.	.	4r	4r	.
.	.	.	.	.	16ee\)	.	.	.	.	.	.
8C\J	.	.	.	.	(>16dd\	.	.	.	.	.	.
.	.	.	.	.	16cc\JJ)	.	.	.	.	.	.
!	!	!	!	!	!	!	!	!	!	!LO:LB:g=original	!
=32	=32	=32	=32	=32	=32	=32	=32-	=32	=32	=32	=32
8A\L	.	2.c\	2.a/	.	8ff\L	.	2.r	.	2f\	2a\	.
8C\	.	.	.	.	8cc\J	.	.	.	.	.	.
8A\	.	.	.	.	4cc\	.	.	.	.	.	.
8C\	.	.	.	.	.	.	.	.	.	.	.
8A\	.	.	.	.	4r	.	.	.	4r	4r	.
8C\J	.	.	.	.	.	.	.	.	.	.	.
!	!	!	!	!	!	!	!	!	!LO:LB:g=original	!	!
=33	=33	=33	=33	=33	=33	=33	=33-	=33	=33	=33	=33
8G\L	.	2.c\	2.g/	.	4.bb-\	.	2.r	.	2c\	2g\	.
8C\	.	.	.	.	.	.	.	.	.	.	.
8G\	.	.	.	.	.	.	.	.	.	.	.
8C\	.	.	.	.	8gg\	.	.	.	.	.	.
8G\	.	.	.	.	8ee\L	.	.	.	4r	4r	.
8C\J	.	.	.	.	8b-\J	.	.	.	.	.	.
=34	=34	=34	=34	=34	=34	=34	=34-	=34	=34	=34	=34
8F\L	.	2.c\	2.a/	.	(>16b-\LL	.	2.r	.	2f\	2a\	.
.	.	.	.	.	16a\)	.	.	.	.	.	.
8C\	.	.	.	.	(>16dd\	.	.	.	.	.	.
.	.	.	.	.	16cc\JJ)	.	.	.	.	.	.
8F\	.	.	.	.	4cc\	.	.	.	.	.	.
8C\	.	.	.	.	.	.	.	.	.	.	.
8F\	.	.	.	.	4r	.	.	.	4r	4r	.
8C\J	.	.	.	.	.	.	.	.	.	.	.
!	!	!	!	!	!LO:LB:g=original	!	!	!	!	!	!
=35	=35	=35	=35	=35	=35	=35	=35-	=35	=35	=35	=35
!LO:TX:t=P:problem=t. 35-38 zapisane jako repetycja	!	!	!	!	!	!	!	!	!	!	!
!	!LO:DY:b:t=f&colon;:rj	!	!	!	!	!	!	!	!	!	!
8B-\Lyy	f	2.c\	2.g/	.	4.ee\	.	2.r	.	0.r	0.r	.
8C\yy	.	.	.	.	.	.	.	.	.	.	.
8B-\yy	.	.	.	.	.	.	.	.	.	.	.
8C\yy	.	.	.	.	8gg\	.	.	.	.	.	.
!LO:TX:a:t=R	!	!	!	!	!	!	!	!	!	!	!
8B-\yy	.	.	.	.	16ff\LL	.	.	.	.	.	.
.	.	.	.	.	16ee\	.	.	.	.	.	.
8C\Jyy	.	.	.	.	16dd\	.	.	.	.	.	.
.	.	.	.	.	16cc\JJ	.	.	.	.	.	.
=36	=36	=36	=36	=36	=36	=36	=36-	=36	=36-	=36-	=36
8A\Lyy	.	2.c\	2.a/	.	8ff\L	.	2.r	.	.	.	.
8C\yy	.	.	.	.	8cc\J	.	.	.	.	.	.
8A\yy	.	.	.	.	4cc\	.	.	.	.	.	.
8C\yy	.	.	.	.	.	.	.	.	.	.	.
8A\yy	.	.	.	.	4r	.	.	.	.	.	.
8C\Jyy	.	.	.	.	.	.	.	.	.	.	.
=37	=37	=37	=37	=37	=37	=37	=37-	=37	=37-	=37-	=37
8G\Lyy	.	2.c\	2.g/	.	4.bb-\	.	2.r	.	.	.	.
8C\yy	.	.	.	.	.	.	.	.	.	.	.
8G\yy	.	.	.	.	.	.	.	.	.	.	.
8C\yy	.	.	.	.	8gg\	.	.	.	.	.	.
8G\yy	.	.	.	.	8ee\L	.	.	.	.	.	.
8C\Jyy	.	.	.	.	8b-\J	.	.	.	.	.	.
=38	=38	=38	=38	=38	=38	=38	=38-	=38	=38-	=38-	=38
8F\Lyy	.	2.c\	2.a/	.	8a\L	.	2.r	.	.	.	.
8C\yy	.	.	.	.	16dd\L	.	.	.	.	.	.
.	.	.	.	.	16cc\JJ	.	.	.	.	.	.
8F\yy	.	.	.	.	4cc\	.	.	.	.	.	.
8C\yy	.	.	.	.	.	.	.	.	.	.	.
8F\yy	.	.	.	.	4r	.	.	.	.	.	.
8C\Jyy	.	.	.	.	.	.	.	.	.	.	.
!LO:LB:g=original	!	!LO:LB:g=original	!	!	!	!	!	!	!	!	!
=39	=39	=39	=39	=39	=39	=39	=39-	=39	=39	=39	=39
*tremolo	*	*tremolo	*tremolo	*	*	*	*	*	*	*	*
8B-\L	.	8B-/L	8f/L	.	8ee\L	.	2.r	.	4r	4r	.
8B-\	.	8B-/	8f/	.	8dd\	.	.	.	.	.	.
8B-\	.	8B-/	8f/	.	8ff\	.	.	.	4b-\	4dd\	.
8B-\J	.	8B-/J	8f/	.	8dd\J	.	.	.	.	.	.
*Xtremolo	*	*Xtremolo	*	*	*	*	*	*	*	*	*
8A\L	.	8A/L	8f/	.	8cc\L	.	.	.	4a\	4cc\	.
8A\J	.	8A/J	8f/J	.	8a\J	.	.	.	.	.	.
*	*	*	*Xtremolo	*	*	*	*	*	*	*	*
=40	=40	=40	=40	=40	=40	=40	=40-	=40	=40	=40	=40
8G\L	.	8G/L	8f/L	.	8cc\L	.	2.r	.	4r	4r	.
8G\	.	8G/	8f/	.	8b-\	.	.	.	.	.	.
8C\	.	8c/	8e/	.	8g\	.	.	.	4g\	4b-\	.
8C\	.	8c/	8e/	.	8b-\	.	.	.	.	.	.
8F\	.	8f/	8c/	.	8a\	.	.	.	4f\	4a\	.
8F\J	.	8f/J	8c/J	.	8ff\J	.	.	.	.	.	.
=41	=41	=41	=41	=41	=41	=41	=41-	=41	=41	=41	=41
!!mixed beam:problem
!LO:TX:t=P:problem=mixed beam	!	!	!	!	!	!	!	!	!	!	!
8B-\L	.	8B-/L	8d/L	.	8dd\L	.	2.r	.	4g\	4b-\	.
8B-\	.	8B-/	16c/L	.	16cc\L	.	.	.	.	.	.
.	.	.	16B-/JJ	.	16b-\JJ	.	.	.	.	.	.
!	!	!	!	!	!LO:LB:g=original	!	!	!	!	!	!
8c\	.	8c/	4A/	.	4a/	.	.	.	4f\	4a\	.
8c\	.	8c/	.	.	.	.	.	.	.	.	.
8C/	.	8c/	4G/	.	4g/	.	.	.	4c\	4g\	.
8C/J	.	8c/J	.	.	.	.	.	.	.	.	.
=42	=42	=42	=42	=42	=42	=42	=42-	=42	=42	=42	=42
*tremolo	*	*tremolo	*	*	*	*	*	*	*	*	*
8F\L	.	8f\L	4A/	.	4f/	.	2.r	.	4A/	4f\	.
8F\	.	8f\	.	.	.	.	.	.	.	.	.
8F\	.	8f\	8r	.	8r	.	.	.	4r	4r	.
8F\	.	8f\	16a\LL	.	16cc\LL	.	.	.	.	.	.
.	.	.	16b-\JJ	.	16dd\JJ	.	.	.	.	.	.
8F\	.	8f\	8a\L	.	8cc\L	.	.	.	4r	4r	.
8F\J	.	8f\J	8a\J	.	8cc\J	.	.	.	.	.	.
!	!	!	!LO:LB:g=original	!	!	!	!	!	!	!	!
=43	=43	=43	=43	=43	=43	=43	=43-	=43	=43	=43	=43
8BB-/L	.	8B-\L	(>16a\LL	.	(>16cc\LL	.	2.r	.	2.r	2.r	.
.	.	.	16g\J)	.	16b-\J)	.	.	.	.	.	.
!	!	!	!LO:TX:a:t=|:problem	!	!LO:TX:a:t=|:problem	!	!	!	!	!	!
8BB-/	.	8B-\	8g\J	.	8b-\J	.	.	.	.	.	.
8BB-/	.	8B-\	8r	.	8r	.	.	.	.	.	.
!	!	!	!LO:TX:b:t=|:problem	!LO:DY:b:t=p&colon;	!	!	!	!	!	!	!
8BB-/J	.	8B-\J	8d/L	p	8b-\L	.	.	.	.	.	.
.	.	.	.	.	8qqb-/	.	.	.	.	.	.
*Xtremolo	*	*Xtremolo	*	*	*	*	*	*	*	*	*
8C/L	.	8c\L	(<8B-/	.	8g\	.	.	.	.	.	.
.	.	.	.	.	8qqf/	.	.	.	.	.	.
8C/J	.	8c\J	8G/J)	.	8e\J	.	.	.	.	.	.
=44	=44	=44	=44	=44	=44	=44	=44-	=44	=44	=44	=44
*tremolo	*	*tremolo	*	*	*	*	*	*	*	*	*
8F\L	.	8F/L	4A/	.	4f/	.	2.r	.	4F/	4f\	.
8F\	.	8F/	.	.	.	.	.	.	.	.	.
8F\	.	8F/	8r	.	8r	.	.	.	4r	4r	.
8F\	.	8F/	16a\LL	.	16cc\LL	.	.	.	.	.	.
.	.	.	16b-\JJ	.	16dd\JJ	.	.	.	.	.	.
8F\	.	8F/	8a\L	.	8cc\L	.	.	.	4r	4r	.
8F\J	.	8F/J	8a\J	.	8cc\J	.	.	.	.	.	.
=45	=45	=45	=45	=45	=45	=45	=45-	=45	=45	=45	=45
!	!	!	!	!LO:DY:b:t=f.:rj	!	!LO:DY:b:rj	!	!	!	!	!
8BB-/L	.	8B-\L	16a\LL	f	(>16cc\LL	f	2.r	.	2.r	2.r	.
.	.	.	16g\J	.	16b-\J)	.	.	.	.	.	.
!	!	!	!	!	!LO:TX:a:t=|:problem	!	!	!	!	!	!
8BB-/	.	8B-\	8g\J	.	8b-\J	.	.	.	.	.	.
8BB-/	.	8B-\	8r	.	8r	.	.	.	.	.	.
!	!	!	!	!LO:DY:b:t=p&colon;	!	!	!	!	!	!	!
8BB-/J	.	8B-\J	8d/L	p	8b-\L	.	.	.	.	.	.
*	*	*Xtremolo	*	*	*	*	*	*	*	*	*
*Xtremolo	*	*	*	*	*	*	*	*	*	*	*
8C/L	.	8c\L	8B-/	.	8g\	.	.	.	.	.	.
8C/J	.	8c\J	8G/J	.	8e\J	.	.	.	.	.	.
!	!	!LO:LB:g=original	!	!	!	!	!	!	!	!LO:LB:g=original	!
=46	=46	=46	=46	=46	=46	=46	=46-	=46	=46	=46	=46
!	!	!	!	!LO:DY:b:t=pianiſ-	!	!LO:DY:b:t=pianiſſimo	!	!	!	!	!LO:DY:b:t=pianiſ
4.F\	.	4.F/	4.A/	pp	4.f/	pp	2.r	.	4.F/	4.f\	pp
8C\	.	8C/	8B-M>/	.	8g/	.	.	.	8cM>/	8gM>\	.
8F\L	.	8F/L	8A/L	.	8f/L	.	.	.	8F/L	8f\L	.
8C\J	.	8C/J	8B-M>/J	.	8g/J	.	.	.	8cM>/J	8gM>\J	.
!	!	!	!	!	!LO:LB:g=original	!	!	!	!LO:LB:g=original	!	!
=47	=47	=47	=47	=47	=47	=47	=47-	=47	=47	=47	=47
4.F\	.	4.F/	4.A/	.	4.f/	.	2.r	.	4.F/	4.f\	.
8C\	.	8C/	8B-M>/	.	8g/	.	.	.	8c/	8gM>\	.
8F\L	.	8F/L	8A/L	.	8f/L	.	.	.	8F/L	8f'>\L	.
8C\J	.	8C/J	8B-M>/J	.	8g/J	.	.	.	8c/J	8gM>\J	.
=48	=48	=48	=48	=48	=48	=48	=48-	=48	=48	=48	=48
4F\	.	4F/	4A/	.	4f/	.	2.r	.	4F/	4f\	.
4FF/	.	4F/	4A/	.	4f/	.	.	.	4A/	4f\	.
4FF/	.	4F/	4A/	.	4f/	.	.	.	4c/	4f\	.
=49	=49	=49	=49	=49	=49	=49	=49-	=49	=49	=49	=49
!	!	!	!	!	!	!	!LO:TX:b:t=Finis Alma D&colon; 1823.	!	!	!	!
2FF/	.	2F/	2A/	.	2f/	.	2.r	.	2F/	2f\	.
!	!	!	!	!	!	!	!	!	!LO:TX:a:t=il fine	!LO:TX:a:t=il fine	!
4ryy	.	4r	4r	.	4r	.	.	.	4r	4r	.
==	==	==	==	==	==	==	==	==	==	==	==
*-	*-	*-	*-	*-	*-	*-	*-	*-	*-	*-	*-
!!!system-decoration: [(g1)][(g2)][(g3)]
!!!RDF**kern: > = above
!!!RDF**kern: < = below
!!!ENC: Marcin Jachim
!!!END: 2020-10-04
!!!EED: Jędrzej Mróz
!!!EEV: 2022-01-28
